svg/emoji_u1f68e.svg

<svg width="128" height="128" viewBox="0 0 128 128" fill="none" xmlns="http://www.w3.org/2000/svg">
<path d="M4 5.5H124" stroke="#607D8B" style="stroke:#607D8B;stroke:color(display-p3 0.3765 0.4902 0.5451);stroke-opacity:1;" stroke-width="3" stroke-miterlimit="10"/>
<path d="M78.1 26.29C96.4 11.71 111.03 6.29004 111.03 6.29004" stroke="#82AEC0" style="stroke:#82AEC0;stroke:color(display-p3 0.5098 0.6824 0.7529);stroke-opacity:1;" stroke-width="3" stroke-miterlimit="10"/>
<path d="M9.41997 81.2402C8.62997 84.0902 7.96997 86.9602 7.47997 89.7602L5.16997 107.82C5.16997 107.82 4.22998 115.05 9.17998 115.05C12.2 115.05 115.01 115.05 119.87 115.05C123.81 115.05 123.72 112.41 123.72 110.46L123.28 81.2402H9.41997Z" fill="#88B151" style="fill:#88B151;fill:color(display-p3 0.5333 0.6941 0.3176);fill-opacity:1;"/>
<path d="M9.41997 81.2402C8.62997 84.0902 7.96997 86.9602 7.47997 89.7602L5.16997 107.82C5.16997 107.82 4.22998 115.05 9.17998 115.05C12.2 115.05 115.01 115.05 119.87 115.05C123.81 115.05 123.72 112.41 123.72 110.46L123.28 81.2402H9.41997Z" fill="#039BE5" style="fill:#039BE5;fill:color(display-p3 0.0118 0.6078 0.8980);fill-opacity:1;"/>
<path d="M119.87 115.05C115.07 115.05 9.44 115.05 8.37 115.05C6.8 115.05 5.75 112.78 5.75 112.78C5.75 112.78 117.95 112.78 119.87 112.78C121.79 112.78 123.72 111.07 123.72 111.07C123.72 111.07 124.66 115.05 119.87 115.05Z" fill="#608C3D" style="fill:#608C3D;fill:color(display-p3 0.3765 0.5490 0.2392);fill-opacity:1;"/>
<path d="M119.87 115.05C115.07 115.05 9.44 115.05 8.37 115.05C6.8 115.05 5.75 112.78 5.75 112.78C5.75 112.78 117.95 112.78 119.87 112.78C121.79 112.78 123.72 111.07 123.72 111.07C123.72 111.07 124.66 115.05 119.87 115.05Z" fill="#0D47A1" style="fill:#0D47A1;fill:color(display-p3 0.0510 0.2784 0.6314);fill-opacity:1;"/>
<path d="M86.79 38.7H58.4H54.55C53.57 38.7 52.84 37.79 53.03 36.82L54.21 30.79C54.35 30.05 54.99 29.52 55.73 29.52H85.61C86.35 29.52 86.99 30.05 87.13 30.79L88.31 36.82C88.5 37.79 87.77 38.7 86.79 38.7Z" fill="#82AEC0" style="fill:#82AEC0;fill:color(display-p3 0.5098 0.6824 0.7529);fill-opacity:1;"/>
<path d="M53.03 37.5501L53.36 35.1401H87.98L88.28 37.5501H53.03Z" fill="#2F7889" style="fill:#2F7889;fill:color(display-p3 0.1843 0.4706 0.5373);fill-opacity:1;"/>
<path d="M122.8 49.2101C122.8 49.2101 123.4 36.8301 112.62 36.8301C108.68 36.8301 45.21 36.8301 43.7 36.8301C42.2 36.8301 41.74 33.1201 39.52 33.1201C37.3 33.1201 31.23 33.3301 27.16 34.1501C20.25 35.5301 14.01 39.7601 10.95 58.8301L7.12 92.6101C7.12 92.6101 22.15 92.6101 30.57 92.6101C38.99 92.6101 43.9 85.9401 51.97 85.9401C60.04 85.9401 123.41 85.9401 123.41 85.9401L122.8 49.2101Z" fill="#FFCA28" style="fill:#FFCA28;fill:color(display-p3 1.0000 0.7922 0.1569);fill-opacity:1;"/>
<path d="M122.8 49.2101C122.8 49.2101 123.4 36.8301 112.62 36.8301C108.68 36.8301 45.21 36.8301 43.7 36.8301C42.2 36.8301 41.74 33.1201 39.52 33.1201C37.3 33.1201 31.23 33.3301 27.16 34.1501C20.25 35.5301 14.01 39.7601 10.95 58.8301L7.12 92.6101C7.12 92.6101 22.15 92.6101 30.57 92.6101C38.99 92.6101 43.9 85.9401 51.97 85.9401C60.04 85.9401 123.41 85.9401 123.41 85.9401L122.8 49.2101Z" fill="#1976D2" style="fill:#1976D2;fill:color(display-p3 0.0980 0.4627 0.8235);fill-opacity:1;"/>
<path d="M121.61 42.6601C120.36 39.6901 117.81 36.8301 112.63 36.8301C108.69 36.8301 45.2199 36.8301 43.7099 36.8301C42.1999 36.8301 41.7499 33.1201 39.5299 33.1201C37.3099 33.1201 31.2399 33.3301 27.1699 34.1501C22.9399 35.0001 18.9699 36.9301 15.8199 42.6601H121.61Z" fill="#BDBDBD" style="fill:#BDBDBD;fill:color(display-p3 0.7412 0.7412 0.7412);fill-opacity:1;"/>
<path d="M42.6199 83.1202C49.1499 83.1202 103.08 83.1202 123.36 83.1202L122.81 49.2102C122.81 49.2102 123.41 39.3702 116.48 39.3702C112.54 39.3702 40.4499 39.3702 38.9399 39.3702C37.4299 39.3702 37.3799 35.6602 35.9899 35.6602C33.7699 35.6602 25.8399 36.0002 23.9499 36.3402C20.5099 36.9702 18.6099 38.6902 18.6099 38.6902C15.5999 41.9402 12.9899 46.2102 10.9699 58.8202L7.43994 89.7902C12.0199 89.7902 17.3299 89.7902 21.2299 89.7902C29.6399 89.7902 34.5499 83.1202 42.6199 83.1202Z" fill="#E0E0E0" style="fill:#E0E0E0;fill:color(display-p3 0.8784 0.8784 0.8784);fill-opacity:1;"/>
<path d="M116.14 49.7202H21.12C21.12 49.7202 15.4 54.0202 14.28 65.1302C13.16 76.2402 14.28 81.3102 14.28 81.3102H24.7L40.87 77.4302H115.64L116.14 49.7202Z" fill="#BAE2FD" style="fill:#BAE2FD;fill:color(display-p3 0.7294 0.8863 0.9922);fill-opacity:1;"/>
<path d="M21.82 123.99C27.9173 123.99 32.86 118.971 32.86 112.78C32.86 106.589 27.9173 101.57 21.82 101.57C15.7228 101.57 10.78 106.589 10.78 112.78C10.78 118.971 15.7228 123.99 21.82 123.99Z" fill="#5D4037" style="fill:#5D4037;fill:color(display-p3 0.3647 0.2510 0.2157);fill-opacity:1;"/>
<path d="M21.82 119.1C25.2607 119.1 28.05 116.27 28.05 112.78C28.05 109.29 25.2607 106.46 21.82 106.46C18.3792 106.46 15.59 109.29 15.59 112.78C15.59 116.27 18.3792 119.1 21.82 119.1Z" fill="#9E9E9E" style="fill:#9E9E9E;fill:color(display-p3 0.6196 0.6196 0.6196);fill-opacity:1;"/>
<path d="M11 115.05C10.85 114.32 10.77 113.56 10.77 112.78C10.77 106.59 15.71 101.57 21.81 101.57C27.91 101.57 32.8499 106.59 32.8499 112.78C32.8499 113.56 32.7699 114.32 32.6199 115.05H34.4399C34.5699 114.31 34.65 113.55 34.65 112.78C34.65 105.59 28.8899 99.7402 21.8 99.7402C14.72 99.7402 8.94995 105.59 8.94995 112.78C8.94995 113.56 9.02995 114.31 9.15995 115.05H11Z" fill="#608C3D" style="fill:#608C3D;fill:color(display-p3 0.3765 0.5490 0.2392);fill-opacity:1;"/>
<path d="M11 115.05C10.85 114.32 10.77 113.56 10.77 112.78C10.77 106.59 15.71 101.57 21.81 101.57C27.91 101.57 32.8499 106.59 32.8499 112.78C32.8499 113.56 32.7699 114.32 32.6199 115.05H34.4399C34.5699 114.31 34.65 113.55 34.65 112.78C34.65 105.59 28.8899 99.7402 21.8 99.7402C14.72 99.7402 8.94995 105.59 8.94995 112.78C8.94995 113.56 9.02995 114.31 9.15995 115.05H11Z" fill="#0D47A1" style="fill:#0D47A1;fill:color(display-p3 0.0510 0.2784 0.6314);fill-opacity:1;"/>
<path d="M99.78 123.99C105.877 123.99 110.82 118.971 110.82 112.78C110.82 106.589 105.877 101.57 99.78 101.57C93.6828 101.57 88.74 106.589 88.74 112.78C88.74 118.971 93.6828 123.99 99.78 123.99Z" fill="#5D4037" style="fill:#5D4037;fill:color(display-p3 0.3647 0.2510 0.2157);fill-opacity:1;"/>
<path d="M99.78 119.1C103.221 119.1 106.01 116.27 106.01 112.78C106.01 109.29 103.221 106.46 99.78 106.46C96.3393 106.46 93.55 109.29 93.55 112.78C93.55 116.27 96.3393 119.1 99.78 119.1Z" fill="#9E9E9E" style="fill:#9E9E9E;fill:color(display-p3 0.6196 0.6196 0.6196);fill-opacity:1;"/>
<path d="M88.96 115.05C88.81 114.32 88.73 113.56 88.73 112.78C88.73 106.59 93.67 101.57 99.77 101.57C105.87 101.57 110.81 106.59 110.81 112.78C110.81 113.56 110.73 114.32 110.58 115.05H112.4C112.53 114.31 112.61 113.55 112.61 112.78C112.61 105.59 106.85 99.7402 99.76 99.7402C92.68 99.7402 86.91 105.59 86.91 112.78C86.91 113.56 86.99 114.31 87.12 115.05H88.96Z" fill="#608C3D" style="fill:#608C3D;fill:color(display-p3 0.3765 0.5490 0.2392);fill-opacity:1;"/>
<path d="M88.96 115.05C88.81 114.32 88.73 113.56 88.73 112.78C88.73 106.59 93.67 101.57 99.77 101.57C105.87 101.57 110.81 106.59 110.81 112.78C110.81 113.56 110.73 114.32 110.58 115.05H112.4C112.53 114.31 112.61 113.55 112.61 112.78C112.61 105.59 106.85 99.7402 99.76 99.7402C92.68 99.7402 86.91 105.59 86.91 112.78C86.91 113.56 86.99 114.31 87.12 115.05H88.96Z" fill="#0D47A1" style="fill:#0D47A1;fill:color(display-p3 0.0510 0.2784 0.6314);fill-opacity:1;"/>
<path d="M6.98004 105.82C7.52004 105.9 8.03004 105.51 8.11004 104.97L9.35004 95.9399C9.42004 95.3999 9.04004 94.8899 8.50004 94.8099L7.86004 94.7199C7.32004 94.6399 6.81004 95.0299 6.74004 95.5699L5.56004 104.61C5.50004 105.16 5.90004 105.67 6.44004 105.74L6.98004 105.82Z" fill="#FFA000" style="fill:#FFA000;fill:color(display-p3 1.0000 0.6275 0.0000);fill-opacity:1;"/>
<path d="M123.46 97.0098C123.45 96.4598 122.99 96.0098 122.44 96.0098H121.45C120.9 96.0098 120.45 96.4598 120.45 97.0098V106.13C120.45 106.68 120.9 107.13 121.45 107.13H122.65C123.2 107.13 123.64 106.68 123.63 106.13L123.46 97.0098Z" fill="#F44336" style="fill:#F44336;fill:color(display-p3 0.9569 0.2627 0.2118);fill-opacity:1;"/>
<path d="M111.62 46.5298C107.55 46.5298 29.22 46.5298 29.22 46.5298C24.53 46.5298 20 46.9698 17.57 50.7798C15.08 54.6798 13 64.0598 12.54 73.0698C12.18 80.0498 12.2 83.7398 18.82 83.7398H24.68C29.05 83.7398 35.48 80.3598 40.36 80.3098C45.24 80.2598 98.67 79.7598 111.09 79.7598C116.05 79.7598 118.09 76.3398 118.09 73.0198C118.09 70.8098 118.09 52.9098 118.09 52.9098C118.09 52.9098 118.34 46.5298 111.62 46.5298ZM82.52 52.4798H94.55C95.61 52.4798 96.47 53.3398 96.47 54.3998V72.6698C96.47 73.7298 95.61 74.5898 94.55 74.5898H82.52C81.46 74.5898 80.6 73.7298 80.6 72.6698V54.3998C80.6 53.3398 81.46 52.4798 82.52 52.4798ZM75.68 74.5798H63.65C62.59 74.5798 61.73 73.7198 61.73 72.6598V54.3998C61.73 53.3398 62.59 52.4798 63.65 52.4798H75.68C76.74 52.4798 77.6 53.3398 77.6 54.3998V72.6698C77.6 73.7198 76.74 74.5798 75.68 74.5798ZM58.73 54.3998V72.6698C58.73 73.7298 57.87 74.5898 56.81 74.5898H44.78C43.72 74.5898 42.86 73.7298 42.86 72.6698V54.3998C42.86 53.3398 43.72 52.4798 44.78 52.4798H56.81C57.87 52.4798 58.73 53.3398 58.73 54.3998ZM18.83 78.3798C14.89 78.3798 15.05 76.4798 15.25 72.8298C15.64 65.5298 17.33 59.1498 19.88 55.3398C21.49 52.9398 24.52 52.4698 29.22 52.4698H37.93C38.99 52.4698 39.85 53.3298 39.85 54.3898V72.9898C39.85 73.9098 39.2 74.6698 38.31 74.8698C34.34 75.7498 29.85 78.3698 24.69 78.3698H18.83V78.3798ZM115.41 56.0398V56.0798V70.6298C115.41 71.8198 114.99 74.5798 111.12 74.5798H101.4C100.34 74.5798 99.48 73.7198 99.48 72.6598V54.3998C99.48 53.3398 100.34 52.4798 101.4 52.4798H111.62C112.86 52.4798 113.76 52.7498 114.35 53.3098C115.24 54.1398 115.42 55.5498 115.41 55.9998V56.0398Z" fill="#37474F" style="fill:#37474F;fill:color(display-p3 0.2157 0.2784 0.3098);fill-opacity:1;"/>
<path d="M14.61 47.0798C11.55 47.0798 10.13 48.0398 8.48 49.8198L6.2 52.8398C5.04 52.9998 4.13 53.9898 4.13 55.1998V64.8898C4.13 66.2098 5.2 67.2798 6.52 67.2798H7.14C7.6 67.2798 7.97 66.9098 7.97 66.4498V54.1498C9.33 52.9898 12.3 50.7698 15.17 50.7698L22.56 50.2098L27.04 46.5298L14.61 47.0798Z" fill="#37474F" style="fill:#37474F;fill:color(display-p3 0.2157 0.2784 0.3098);fill-opacity:1;"/>
<path d="M111.03 8.44994C112.483 8.44994 113.66 7.27245 113.66 5.81994C113.66 4.36743 112.483 3.18994 111.03 3.18994C109.578 3.18994 108.4 4.36743 108.4 5.81994C108.4 7.27245 109.578 8.44994 111.03 8.44994Z" fill="#5C9AAD" style="fill:#5C9AAD;fill:color(display-p3 0.3608 0.6039 0.6784);fill-opacity:1;"/>
<path d="M80.73 25.64L79.25 24.16C78.55 23.46 77.35 23.76 77.07 24.71C77.07 24.71 77.07 24.71 76.75 25.79C76.43 26.87 74.49 25.72 72.48 27.32C71.66 27.97 71.22 28.78 70.97 29.52H78.09C78.24 28.82 78.48 28.18 79.2 28.03C80.08 27.85 80.08 27.85 80.08 27.85C81.09 27.63 81.47 26.37 80.73 25.64Z" fill="#5C9AAD" style="fill:#5C9AAD;fill:color(display-p3 0.3608 0.6039 0.6784);fill-opacity:1;"/>
</svg>

<?xml version="1.0" encoding="utf-8"?>
<!-- Generator: Adobe Illustrator 25.2.3, SVG Export Plug-In . SVG Version: 6.00 Build 0)  -->
<svg version="1.1" id="Layer_4" xmlns="http://www.w3.org/2000/svg" xmlns:xlink="http://www.w3.org/1999/xlink" x="0px" y="0px"
	 viewBox="0 0 128 128" style="enable-background:new 0 0 128 128;" xml:space="preserve">
<line style="fill:none;stroke:#607D8B;stroke-width:3;stroke-miterlimit:10;" x1="4" y1="5.5" x2="124" y2="5.5"/>
<path style="fill:none;stroke:#82AEC0;stroke-width:3;stroke-miterlimit:10;" d="M78.1,26.29c18.3-14.58,32.93-20,32.93-20"/>
<line style="fill:#37474F;" x1="121.56" y1="72.56" x2="121.56" y2="74.47"/>
<path style="fill:#88B151;" d="M9.42,81.24c-0.79,2.85-1.45,5.72-1.94,8.52l-2.31,18.06c0,0-0.94,7.23,4.01,7.23
	c3.02,0,105.83,0,110.69,0c3.94,0,3.85-2.64,3.85-4.59l-0.44-29.22H9.42z"/>
<path style="fill:#608C3D;" d="M119.87,115.05c-4.8,0-110.43,0-111.5,0c-1.57,0-2.62-2.27-2.62-2.27s112.2,0,114.12,0
	s3.85-1.71,3.85-1.71S124.66,115.05,119.87,115.05z"/>
<path style="fill:#82AEC0;" d="M86.79,38.7H58.4h-3.85c-0.98,0-1.71-0.91-1.52-1.88l1.18-6.03c0.14-0.74,0.78-1.27,1.52-1.27h29.88
	c0.74,0,1.38,0.53,1.52,1.27l1.18,6.03C88.5,37.79,87.77,38.7,86.79,38.7z"/>
<polygon style="fill:#2F7889;" points="53.03,37.55 53.36,35.14 87.98,35.14 88.28,37.55 "/>
<path style="fill:#FFCA28;" d="M122.8,49.21c0,0,0.6-12.38-10.18-12.38c-3.94,0-67.41,0-68.92,0c-1.5,0-1.96-3.71-4.18-3.71
	s-8.29,0.21-12.36,1.03c-6.91,1.38-13.15,5.61-16.21,24.68L7.12,92.61c0,0,15.03,0,23.45,0s13.33-6.67,21.4-6.67s71.44,0,71.44,0
	L122.8,49.21z"/>
<path style="fill:#BDBDBD;" d="M121.61,42.66c-1.25-2.97-3.8-5.83-8.98-5.83c-3.94,0-67.41,0-68.92,0s-1.96-3.71-4.18-3.71
	s-8.29,0.21-12.36,1.03c-4.23,0.85-8.2,2.78-11.35,8.51H121.61z"/>
<path style="fill:#E0E0E0;" d="M42.62,83.12c6.53,0,60.46,0,80.74,0l-0.55-33.91c0,0,0.6-9.84-6.33-9.84c-3.94,0-76.03,0-77.54,0
	s-1.56-3.71-2.95-3.71c-2.22,0-10.15,0.34-12.04,0.68c-3.44,0.63-5.34,2.35-5.34,2.35c-3.01,3.25-5.62,7.52-7.64,20.13L7.44,89.79
	c4.58,0,9.89,0,13.79,0C29.64,89.79,34.55,83.12,42.62,83.12z"/>
<g>
	<path style="fill:#BAE2FD;" d="M116.14,49.72H21.12c0,0-5.72,4.3-6.84,15.41s0,16.18,0,16.18H24.7l16.17-3.88h74.77L116.14,49.72z"
		/>
</g>
<g>
	<ellipse style="fill:#5D4037;" cx="21.82" cy="112.78" rx="11.04" ry="11.21"/>
</g>
<g>
	<ellipse style="fill:#9E9E9E;" cx="21.82" cy="112.78" rx="6.23" ry="6.32"/>
</g>
<path style="fill:#608C3D;" d="M11,115.05c-0.15-0.73-0.23-1.49-0.23-2.27c0-6.19,4.94-11.21,11.04-11.21
	c6.1,0,11.04,5.02,11.04,11.21c0,0.78-0.08,1.54-0.23,2.27h1.82c0.13-0.74,0.21-1.5,0.21-2.27c0-7.19-5.76-13.04-12.85-13.04
	c-7.08,0-12.85,5.85-12.85,13.04c0,0.78,0.08,1.53,0.21,2.27H11z"/>
<g>
	<ellipse style="fill:#5D4037;" cx="99.78" cy="112.78" rx="11.04" ry="11.21"/>
</g>
<g>
	<ellipse style="fill:#9E9E9E;" cx="99.78" cy="112.78" rx="6.23" ry="6.32"/>
</g>
<path style="fill:#608C3D;" d="M88.96,115.05c-0.15-0.73-0.23-1.49-0.23-2.27c0-6.19,4.94-11.21,11.04-11.21
	c6.1,0,11.04,5.02,11.04,11.21c0,0.78-0.08,1.54-0.23,2.27h1.82c0.13-0.74,0.21-1.5,0.21-2.27c0-7.19-5.76-13.04-12.85-13.04
	c-7.08,0-12.85,5.85-12.85,13.04c0,0.78,0.08,1.53,0.21,2.27H88.96z"/>
<g>
	<path style="fill:#FFA000;" d="M6.98,105.82c0.54,0.08,1.05-0.31,1.13-0.85l1.24-9.03c0.07-0.54-0.31-1.05-0.85-1.13l-0.64-0.09
		c-0.54-0.08-1.05,0.31-1.12,0.85l-1.18,9.04c-0.06,0.55,0.34,1.06,0.88,1.13L6.98,105.82z"/>
</g>
<g>
	<path style="fill:#F44336;" d="M123.46,97.01c-0.01-0.55-0.47-1-1.02-1h-0.99c-0.55,0-1,0.45-1,1v9.12c0,0.55,0.45,1,1,1h1.2
		c0.55,0,0.99-0.45,0.98-1L123.46,97.01z"/>
</g>
<path style="fill:#37474F;" d="M111.62,46.53c-4.07,0-82.4,0-82.4,0c-4.69,0-9.22,0.44-11.65,4.25c-2.49,3.9-4.57,13.28-5.03,22.29
	c-0.36,6.98-0.34,10.67,6.28,10.67h5.86c4.37,0,10.8-3.38,15.68-3.43c4.88-0.05,58.31-0.55,70.73-0.55c4.96,0,7-3.42,7-6.74
	c0-2.21,0-20.11,0-20.11S118.34,46.53,111.62,46.53z M82.52,52.48h12.03c1.06,0,1.92,0.86,1.92,1.92v18.27
	c0,1.06-0.86,1.92-1.92,1.92H82.52c-1.06,0-1.92-0.86-1.92-1.92V54.4C80.6,53.34,81.46,52.48,82.52,52.48z M75.68,74.58H63.65
	c-1.06,0-1.92-0.86-1.92-1.92V54.4c0-1.06,0.86-1.92,1.92-1.92h12.03c1.06,0,1.92,0.86,1.92,1.92v18.27
	C77.6,73.72,76.74,74.58,75.68,74.58z M58.73,54.4v18.27c0,1.06-0.86,1.92-1.92,1.92H44.78c-1.06,0-1.92-0.86-1.92-1.92V54.4
	c0-1.06,0.86-1.92,1.92-1.92h12.03C57.87,52.48,58.73,53.34,58.73,54.4z M18.83,78.38c-3.94,0-3.78-1.9-3.58-5.55
	c0.39-7.3,2.08-13.68,4.63-17.49c1.61-2.4,4.64-2.87,9.34-2.87h8.71c1.06,0,1.92,0.86,1.92,1.92v18.6c0,0.92-0.65,1.68-1.54,1.88
	c-3.97,0.88-8.46,3.5-13.62,3.5H18.83z M115.41,56.04v0.04v14.55c0,1.19-0.42,3.95-4.29,3.95h-9.72c-1.06,0-1.92-0.86-1.92-1.92
	V54.4c0-1.06,0.86-1.92,1.92-1.92h10.22c1.24,0,2.14,0.27,2.73,0.83c0.89,0.83,1.07,2.24,1.06,2.69L115.41,56.04z"/>
<path style="fill:#37474F;" d="M14.61,47.08c-3.06,0-4.48,0.96-6.13,2.74l-2.28,3.02C5.04,53,4.13,53.99,4.13,55.2v9.69
	c0,1.32,1.07,2.39,2.39,2.39h0.62c0.46,0,0.83-0.37,0.83-0.83V54.15c1.36-1.16,4.33-3.38,7.2-3.38l7.39-0.56l4.48-3.68L14.61,47.08z
	"/>
<circle style="fill:#5C9AAD;" cx="111.03" cy="5.82" r="2.63"/>
<path style="fill:#5C9AAD;" d="M80.73,25.64l-1.48-1.48c-0.7-0.7-1.9-0.4-2.18,0.55c0,0,0,0-0.32,1.08s-2.26-0.07-4.27,1.53
	c-0.82,0.65-1.26,1.46-1.51,2.2h7.12c0.15-0.7,0.39-1.34,1.11-1.49c0.88-0.18,0.88-0.18,0.88-0.18
	C81.09,27.63,81.47,26.37,80.73,25.64z"/>
</svg>
